X:3622
L:1/8
Q:1/4=110
M:3/4
K:E
"_f" E4 GE | B2 B2 B2 | F2 AFGE |"_p" E2 D2 E2 |"_f" e2"_p" Bgfd |"_f" e2"_p" Bgfd | .e.B(BA)(AG) | 
{G} F4 :: B2 B,2"_p" FG | A2 (FA){A} G2 |"_f" B2 B,2"_p" (de) | fdBA{A} G2 | c2 Acec |{c} B2 AGFE | 
 (3FGA G2 F2 | [EB,]6 :|

